X:1
T:Miss McLeod's reel
C:from the playing of Sally Sloane
L:1/8
M:4/4
K:G
|:G2g2e2g2|B3AB4|G2g2e2g2|A3BA4|
|G2g2e2g2|B3AB2d2|e2-e2 edef|gedB A4:|
|:G2Bc d2BA|B3AB4|G2Bc d2B2|A3BA4|
|G2Bc d2BA|B3AB2d2|e2-e2 edef|gedB A4:|